X:1
T:Bacfai ma che
T:Baciai
T:Ludovico Bellanda Veronese
T:Source : Musische di L.Bellanda---Venetia---G.Vincenti---1607. Editor : André Vierendeels (30/06/15).
T:Notes : Original clefs : C4, F4 Figures in BC are notated in the original print 3/4 notated in 3/2 in original print Lyrics by G.B. Guarini (Bacio penoso, Sonnetti)
C:Ludovico Bellanda Veronese
%%score 1 2
L:1/8
Q:1/4=80
M:4/4
K:C
V:1 treble-8 nm="Tenor" snm="T"
V:2 bass nm="BC" snm="BC"
V:1
 z2 A2 B4 | z2 ^G2 A4 | z eeB c2 c2 | c2 c/B/A/G/ A4 | A2 AA d2 GG | G8 | A4 z2 A2 | A3 B B4 | %8
w: Bac- fai,|Bac- fai,|ma che mi val- se'at-|ten- der _ _ _ frut-|to d'a- mo- ro- sa dol-|cez-|za, se|spar- se'il se-|
 B4 B3 B | B2 G2 ^F4 | G8 ::[M:3/4] z2 G2 A2 | B3 B c2 | d4 c2 | z2 e2 d2 | c3 c d2 |[M:4/4] d8 | %17
w: m'in a- ri-|da bel- lez-|za,|son dol-|cis- si- m'i|ba- ci,|son dol-|cis- si- m'i|ba-|
 c4 z GAB | c4 A2 A2 | d6 e/d/c/B/ | c6 A/B/c/B/ | c/d/c/d/ e/A/B/c/ B/c/d/c/ B2 | A8 :: %23
w: ci, a chi ne|pren- de, quel|fin che _ _ _|se n'at- * * *|* * * * * * * * * * * * ten-|de,|
 z2 A2 A2 G2 | G2 F2 G4 | F4 A4 | B4 c4 | d4 B4 | A6 G2 | G4 z2 B2 | c4 d4 | e3 d c2 B2 | d3 c B4 | %33
w: ma s'al- tro|non se'n co-|glie tor-|men- ti|son, tor-|men- ti|son, tor-|men- ti|son de l'a- mo-|ro- se vo-|
 A8 :| %34
w: glie.|
V:2
"^#" A,,4 E,4 |"^#" E,4 A,,2 A,2 | ^G,4 A,4- | A,2 G,2 ^F,4- | F,4 G,4 |"^5  #6" E,8 | D,4 D,4- | %7
 D,2 ^C,2 E,4 |"^#5" E,4 B,,4 |"^#5""^#" B,,2 C,2 D,4 | G,,8 ::[M:3/4] G,4 ^F,2 | G,4 A,2 | %13
 G,4 C,2 | C,4 G,2 | A,4 F,2 |[M:4/4] G,4- G, G,,A,,B,, | C,4 C,4 | C,4 F,,4 | %19
 G,,2 A,,2 B,,2 G,,2 | A,,2 B,,2 C,2 D,2 |"^#" E,8 |"^#" A,,8 ::"^#" A,,4 F,,4 | C,8 | %25
"^#" F,,4 D,4 |"^#6" B,,4 A,,4 |"^6" G,,4 B,,4 |"^5""^#3" ^C,4 D,4 | G,,4 G,,4 | %30
"^7""^5" A,,4 B,,4 | C,4 A,,4 |"^#" D,4 E,4 |"^#" A,,8 :| %34

